!!!OTL: DER MIT DEM SABEL
!!!ARE: Europa, Mitteleuropa, Deutschland, Schwaben
!!!SCT: E1013
!!!YEM: Copyright 1995, estate of Helmut Schaffrath.
**kern
*ICvox
*Ivox
*M3/4
*k[f#]
*G:
=1
{4g
8g
8a
8b
8cc
=2
2dd
4b}
=3
{4g
4a
4g
=4
4f#
8a
8a
4d}
=5
{4g
8g
8a
8b
8cc
=6
2dd
4b}
=7
{4g
4a
4f#
=8
2g
4r}
=9
{4g
8g
8a
8b
8cc
=10
2dd
4b}
=11
{4g
4a
4g
=12
4f#
8a
8a
4d}
=13
{4g
8g
8a
8b
8cc
=14
2dd
4b}
=15
{4g
4a
4f#
=16
2g
4r}
=17
{4a
4d
4d
=18
4.b
8a
4g}
=19
{4a
4d
4d
=20
4.b
8a
4g}
=21
{4g
8g
8a
8b
8cc
=22
2dd
4b}
=23
{4g
4a
4f#
=24
2g
4r}
==
!!!AGN: Tanz - Lied, Soldaten - Lied
!!!ONB: ESAC (Essen Associative Code) Database: ERK3
!!!AMT: simple triple
!!!AIN: vox
!!!EED: Helmut Schaffrath
!!!EEV: 1.0
*-
